icons/k.svg

<svg width="48" height="48" viewBox="0 0 48 48" fill="none" xmlns="http://www.w3.org/2000/svg">
<path fill-rule="evenodd" clip-rule="evenodd" d="M13 36L13 12C13 10.3431 14.3431 9 16 8.99999C17.6569 8.99999 19 10.3431 19 12L19 20.7574L29.8787 9.87867C31.0502 8.7071 32.9497 8.7071 34.1213 9.87867C35.2929 11.0503 35.2929 12.9497 34.1213 14.1213L24.2426 24L34.1213 33.8787C35.2929 35.0503 35.2929 36.9497 34.1213 38.1213L33.4152 37.4152L34.1213 38.1213C32.9497 39.2929 31.0503 39.2929 29.8787 38.1213L20 28.2426L19 29.2426L19 36C19 37.6569 17.6569 39 16 39C14.3431 39 13 37.6569 13 36ZM15 12L15 36C15 36.5523 15.4477 37 16 37C16.5523 37 17 36.5523 17 36L17 28.8284C17 28.5632 17.1054 28.3089 17.2929 28.1213L19.2929 26.1213C19.4804 25.9338 19.7348 25.8284 20 25.8284C20.2652 25.8284 20.5196 25.9338 20.7071 26.1213L31.2929 36.7071C31.6834 37.0976 32.3166 37.0976 32.7071 36.7071C33.0976 36.3166 33.0976 35.6834 32.7071 35.2929L22.1213 24.7071C21.7308 24.3166 21.7308 23.6834 22.1213 23.2929L32.7071 12.7071C33.0976 12.3166 33.0976 11.6834 32.7071 11.2929C32.3166 10.9024 31.6834 10.9024 31.2929 11.2929L18.7071 23.8787C18.4211 24.1647 17.991 24.2502 17.6173 24.0954C17.2436 23.9407 17 23.576 17 23.1716L17 12C17 11.4477 16.5523 11 16 11C15.4477 11 15 11.4477 15 12Z" fill="black"/>
</svg>

<svg
  xmlns="http://www.w3.org/2000/svg"
  width="24"
  height="24"
  viewBox="0 0 24 24"
  fill="none"
  stroke="currentColor"
  stroke-width="2"
  stroke-linecap="round"
  stroke-linejoin="round"
>
  <path
    fill-rule="evenodd"
    d="M13 36V12a3 3 0 1 1 6 0v8.757L29.879 9.88a3 3 0 1 1 4.242 4.242L24.243 24l9.878 9.879a3 3 0 0 1 0 4.242l-.706-.706.706.706a3 3 0 0 1-4.242 0L20 28.243l-1 1V36a3 3 0 1 1-6 0m2-24v24a1 1 0 1 0 2 0v-7.172a1 1 0 0 1 .293-.707l2-2a1 1 0 0 1 1.414 0l10.586 10.586a1 1 0 0 0 1.414-1.414L22.121 24.707a1 1 0 0 1 0-1.414l10.586-10.586a1 1 0 0 0-1.414-1.414L18.707 23.879A1 1 0 0 1 17 23.172V12a1 1 0 1 0-2 0"
    clip-rule="evenodd"
  />
</svg>
